!!!!SEGMENT: pl-kozmzk--mzk-m-159--008_walczynski-franciszek--praeludia-organi-op-5-lento.krn
!!!cenid: 18xx:2751
!!!COM: Walczyński, Franciszek
!!!COM-rismid: pe30021989
!!!CDT: ~1852-1937
!!!CNT: Polish
!!!GTL: Praeludia organi op. 5
!!!OTL: 8. Lento
!!!PDT: 1894
!!!AGN: Secular; Prelude
!!!SMS-siglum: PL-KOZmzk
!!!SMS-shelfmark: mzk/m/159
!!!SMS-shelfwork: 008 G
!!!SMS-variant:
!!!SMS-altvar:
!!!NIFC-rismid: 1001116622
!!!URL-scan: https://repozytorium.nifc.pl/islandora/object/pl-kozmzk%3A2265/datastream/PDF/view
!!!ONB-nifc: UWAGA: numeracja plików zgodna z numeracją źrodłową
!!!OMD: 8. Lento.
!!!AIN: 2 empty
!!!key:
**kern	**kern	**dynam
*part2	*part1	*part1
*staff2	*staff1	*
*Iempty	*Iempty	*
*I"	*I"	*
*clefF4	*clefG2	*
*k[f#c#g#]	*k[f#c#g#]	*
*A:	*A:	*
*M2/4	*M2/4	*
=1	=1	=1
*^	*^	*
!	!	!	!	!LO:DY:rj
4E/	[2AA\	(4c#/	[2A\	pp <
8F#/L	.	8d/L	.	.
8E/J	.	8c#/J	.	.
=2	=2	=2	=2	=2
4D/	2AA\]	4f#/	2A\]	.
4C#/	.	4e/)	.	[
=3	=3	=3	=3	=3
2E/	(2GG#\	(4.e/	(2B\	>
.	.	8d/	.	.
=4	=4	=4	=4	=4
2E/	2AA\)	2c#/)	2A\)	]]
=5	=5	=5	=5	=5
([2A/	2AA\	(4.e/	2c#\	.
.	.	8e#X/	.	.
*	*	*v	*v	*
=6	=6	=6	=6
4A/]	2D\	4f#/	.
4d/)	.	8cc#\L	.
.	.	8b\J)	.
=7	=7	=7	=7
*	*	*^	*
!	!	!	!	!LO:HP:a
(4.c#/	[2E\	2a/	[2e\	>
8cn/	.	.	.	.
=8	=8	=8	=8	=8
2B/)	2E\]	2g#;/	2e\]	]
=9	=9	=9	=9	=9
8r	8ryy	(4.ee/	([2e\	f
(8G#/L	(8E\L	.	.	.
8A/	8F#\	.	.	.
8B/J	8G#\J	8dd/	.	.
=10	=10	=10	=10	=10
4c#/	4A\	[2cc#/	4e\]	.
4B/	4G#\	.	4e#X\	.
=11	=11	=11	=11	=11
4A/	4F#\	2cc#/]	4f#\	.
4A#X/)	4E\)	.	4gn\	.
!!LO:LB:g=original
=12	=12	=12	=12	=12
[2B/	2D\	4ee/	[2f#\)	.
.	.	[4dd/)	.	.
=13	=13	=13	=13	=13
4B/]	4BB\	(4dd^/]	2f#\]	.
(8A#X/L	8C#\L	8cc#/L	.	.
8B/J	8D\J	8b/J	.	.
=14	=14	=14	=14	=14
4c#/	[2E\	[2an/	2e\	.
4cn/)	.	.	.	.
=15	=15	=15	=15	=15
!	!	!	!	!LO:HP:a
(2B/	2E\]	8a/L]	[2d\	>
.	.	8g#/	.	.
.	.	8f#/	.	.
.	.	8g#/J	.	.
=16	=16	=16	=16	=16
!LO:TX:b:i:t=Ped.	!	!	!	!
8G#X/L	[2AA\	4b/	4d\]	.
8E/J	.	.	.	.
4A/)	.	4a/)	([4c#\	]
=17	=17	=17	=17	=17
!	!	!	!	!LO:DY:a
(2Gn/	2AA\_	([2a/	4c#\]	pp
.	.	.	8d\L	.
.	.	.	[8e\J	.
=18	=18	=18	=18	=18
2F#/	2AA\_	2a/_	4e\]	.
.	.	.	4d\)	.
=19	=19	=19	=19	=19
2Fn/	2AA\_	8a/L]	2d\	<
.	.	8g#/	.	.
.	.	8a/	.	.
.	.	8b/J	.	[[
=20	=20	=20	=20	=20
([2E/)	2AA\_	4.cc#^/	([2c#\	.
.	.	8a/)	.	.
=21	=21	=21	=21	=21
!	!	!	!	!LO:HP:a
8E/L]	2AA\_	[2a/	8c#\L]	>
!LO:TX:b:i:t=rit.	!	!	!	!
8F#/	.	.	8d\	.
8E/	.	.	8c#\	.
8D/J	.	.	8B\J	.
=22	=22	=22	=22	=22
2E/)	2AA;\]	2a;/]	2c#\)	] pp
*v	*v	*	*	*
*	*v	*v	*
==	==	==
*-	*-	*-
!!!system-decoration: {(s1,s2)}
!!!EED: Andrzej Borzym
!!!EST: 2021-08-08
!!!ENC: Krzysztof Stępień
!!!END: 2021-07-26
